src/squarespace/squarespace-black.svg

<svg xmlns="http://www.w3.org/2000/svg" width="128" height="128"><path d="M53.621 77.184c-.227.15-.448.325-.646.527-1.508 1.516-1.508 3.975 0 5.489 1.506 1.519 3.95 1.519 5.566.019l24.563-24.709c3.012-3.033 7.902-3.033 10.916 0 3.016 3.031 3.016 7.949 0 10.981l-23.292 23.539c3.017 3.031 7.903 3.031 10.917 0l17.835-18.05c6.027-6.064 6.027-15.897 0-21.961-6.03-6.064-15.804-6.064-21.835 0l-24.024 24.165zm37.561-15.946c-1.509-1.516-3.951-1.516-5.459 0-.199.204-.377.422-.523.655l-23.928 24.069c-3.016 3.033-7.902 3.033-10.917 0l-.109-.016c-1.506-1.516-3.951-1.516-5.458 0-1.508 1.516-1.508 3.975 0 5.489.192.195.398.362.616.506 6.059 5.572 15.463 5.406 21.326-.489l24.452-24.723c1.507-1.516 1.507-3.976 0-5.491zm-40.827 13.742l24.453-24.722c1.506-1.518 1.506-3.975 0-5.491-1.509-1.517-3.951-1.517-5.459 0-.202.201-.377.422-.523.654l-23.928 24.07c-3.016 3.033-7.902 3.033-10.916 0-3.016-3.032-3.016-7.95 0-10.981l23.291-23.539c-3.015-3.033-7.903-3.033-10.919 0l-17.832 18.048c-6.03 6.064-6.03 15.897 0 21.961 6.029 6.064 15.805 6.064 21.833 0zm-13.755-13.742c-1.508 1.516-1.508 3.975 0 5.491 1.506 1.515 3.952 1.515 5.566.016l24.564-24.706c2.861-2.879 7.409-3.025 10.441-.441l.365.425c1.507 1.514 3.952 1.514 5.459 0 1.484-1.495 1.553-3.955.109-5.473-6.028-6.066-15.802-6.066-21.832 0l-24.023 24.163c-.231.148-.448.322-.649.525z"/></svg>

<?xml version="1.0" encoding="UTF-8" standalone="no"?>
<!-- Created with Inkscape (http://www.inkscape.org/) -->

<svg
   xmlns:dc="http://purl.org/dc/elements/1.1/"
   xmlns:cc="http://creativecommons.org/ns#"
   xmlns:rdf="http://www.w3.org/1999/02/22-rdf-syntax-ns#"
   xmlns:svg="http://www.w3.org/2000/svg"
   xmlns="http://www.w3.org/2000/svg"
   xmlns:inkscape="http://www.inkscape.org/namespaces/inkscape"
   version="1.1"
   width="128"
   height="128"
   id="svg2">
  <metadata
     id="metadata10">
    <rdf:RDF>
      <cc:Work
         rdf:about="">
        <dc:format>image/svg+xml</dc:format>
        <dc:type
           rdf:resource="http://purl.org/dc/dcmitype/StillImage" />
      </cc:Work>
    </rdf:RDF>
  </metadata>
  <defs
     id="defs8" />
  <path
     d="m 53.621,77.184 c -0.227,0.15 -0.448,0.325 -0.646,0.527 -1.508,1.516 -1.508,3.975 0,5.489 1.506,1.519 3.95,1.519 5.566,0.019 L 83.104,58.51 c 3.012,-3.033 7.902,-3.033 10.916,0 3.016,3.031 3.016,7.949 0,10.981 L 70.728,93.03 c 3.017,3.031 7.903,3.031 10.917,0 L 99.48,74.98 c 6.027,-6.064 6.027,-15.897 0,-21.961 -6.03,-6.064 -15.804,-6.064 -21.835,0 L 53.621,77.184 z M 91.182,61.238 c -1.509,-1.516 -3.951,-1.516 -5.459,0 -0.199,0.204 -0.377,0.422 -0.523,0.655 L 61.272,85.962 c -3.016,3.033 -7.902,3.033 -10.917,0 l -0.109,-0.016 c -1.506,-1.516 -3.951,-1.516 -5.458,0 -1.508,1.516 -1.508,3.975 0,5.489 0.192,0.195 0.398,0.362 0.616,0.506 6.059,5.572 15.463,5.406 21.326,-0.489 L 91.182,66.729 c 1.507,-1.516 1.507,-3.976 0,-5.491 z M 50.355,74.98 74.808,50.258 c 1.506,-1.518 1.506,-3.975 0,-5.491 -1.509,-1.517 -3.951,-1.517 -5.459,0 -0.202,0.201 -0.377,0.422 -0.523,0.654 l -23.928,24.07 c -3.016,3.033 -7.902,3.033 -10.916,0 -3.016,-3.032 -3.016,-7.95 0,-10.981 L 57.273,34.971 c -3.015,-3.033 -7.903,-3.033 -10.919,0 L 28.522,53.019 c -6.03,6.064 -6.03,15.897 0,21.961 6.029,6.064 15.805,6.064 21.833,0 z M 36.6,61.238 c -1.508,1.516 -1.508,3.975 0,5.491 1.506,1.515 3.952,1.515 5.566,0.016 L 66.73,42.039 c 2.861,-2.879 7.409,-3.025 10.441,-0.441 l 0.365,0.425 c 1.507,1.514 3.952,1.514 5.459,0 1.484,-1.495 1.553,-3.955 0.109,-5.473 -6.028,-6.066 -15.802,-6.066 -21.832,0 L 37.249,60.713 c -0.231,0.148 -0.448,0.322 -0.649,0.525 z"
     inkscape:connector-curvature="0"
     id="path4" />
</svg>
